X: 40143
T: Tigh Na Gorm
R: slip jig
M: 9/8
K: Amajor
c<ec A3 A2e|d>ef e3 c3|c>dB A3 A>Bc|B>cA B3 B>cd|
c<ec A3 A2e|d>ef e3 a3|f<ad e3 A>ce|d>=GB A3 A3||
f>ef a3 d>ef|a>df e3 e3|f>ef a3 d>ef|a>ec B3 B2e|
c>dB A3 A>ce|d>fa e3 c2e|f<ad e3 A>ce d>=GB A3 A3||

